X:1
T: Ding Dong Merrily on High
C:
R:Reel
Q: 232
K:D
M:4/4
L:1/8
d2 d2 ed cB|A6 A2|B2 d2 d2 c2|d4 d4|d2 d2 ed cB|A6 A2|B2 d2 d2 c2|d4 d4|
a3g fg af|g3f ef ge|f3e de fd|e3d cd ec|d3c Bc dB|c3B A2 A2|B2 d2 d2 c2|d4 d4|
d2 d2 ed cB|A6 A2|B2 d2 d2 c2|d4 d4|d2 d2 ed cB|A6 A2|B2 d2 d2 c2|d4 d4|
a3g fg af|g3f ef ge|f3e de fd|e3d cd ec|d3c Bc dB|c3B A2 A2|B2 d2 d2 c2|d4 d4||
